images/5640.svg

<?xml version="1.0" encoding="UTF-8"?>
<svg xmlns="http://www.w3.org/2000/svg" xmlns:xlink="http://www.w3.org/1999/xlink" width="300pt" height="300pt" viewBox="0 0 300 300" version="1.1">
<defs>
<g>
<symbol overflow="visible" id="glyph0-0">
<path style="stroke:none;" d="M 0.453125 1.59375 L 0.453125 -6.34375 L 4.953125 -6.34375 L 4.953125 1.59375 Z M 0.953125 1.09375 L 4.453125 1.09375 L 4.453125 -5.84375 L 0.953125 -5.84375 Z M 0.953125 1.09375 "/>
</symbol>
<symbol overflow="visible" id="glyph0-1">
<path style="stroke:none;" d="M 0.890625 -6.5625 L 2.078125 -6.5625 L 4.984375 -1.078125 L 4.984375 -6.5625 L 5.84375 -6.5625 L 5.84375 0 L 4.65625 0 L 1.75 -5.484375 L 1.75 0 L 0.890625 0 Z M 0.890625 -6.5625 "/>
</symbol>
<symbol overflow="visible" id="glyph0-2">
<path style="stroke:none;" d="M 3.546875 -5.953125 C 2.898438 -5.953125 2.382812 -5.710938 2 -5.234375 C 1.625 -4.753906 1.4375 -4.101562 1.4375 -3.28125 C 1.4375 -2.445312 1.625 -1.789062 2 -1.3125 C 2.382812 -0.832031 2.898438 -0.59375 3.546875 -0.59375 C 4.191406 -0.59375 4.703125 -0.832031 5.078125 -1.3125 C 5.453125 -1.789062 5.640625 -2.445312 5.640625 -3.28125 C 5.640625 -4.101562 5.453125 -4.753906 5.078125 -5.234375 C 4.703125 -5.710938 4.191406 -5.953125 3.546875 -5.953125 Z M 3.546875 -6.6875 C 4.460938 -6.6875 5.195312 -6.375 5.75 -5.75 C 6.300781 -5.132812 6.578125 -4.3125 6.578125 -3.28125 C 6.578125 -2.238281 6.300781 -1.410156 5.75 -0.796875 C 5.195312 -0.179688 4.460938 0.125 3.546875 0.125 C 2.617188 0.125 1.878906 -0.179688 1.328125 -0.796875 C 0.773438 -1.410156 0.5 -2.238281 0.5 -3.28125 C 0.5 -4.3125 0.773438 -5.132812 1.328125 -5.75 C 1.878906 -6.375 2.617188 -6.6875 3.546875 -6.6875 Z M 3.546875 -6.6875 "/>
</symbol>
<symbol overflow="visible" id="glyph0-3">
<path style="stroke:none;" d="M 0.890625 -6.5625 L 1.765625 -6.5625 L 1.765625 -3.875 L 5 -3.875 L 5 -6.5625 L 5.890625 -6.5625 L 5.890625 0 L 5 0 L 5 -3.125 L 1.765625 -3.125 L 1.765625 0 L 0.890625 0 Z M 0.890625 -6.5625 "/>
</symbol>
</g>
</defs>
<g id="surface46449">
<rect x="0" y="0" width="300" height="300" style="fill:rgb(100%,100%,100%);fill-opacity:1;stroke:none;"/>
<path style="fill:none;stroke-width:1.2;stroke-linecap:butt;stroke-linejoin:miter;stroke:rgb(0%,0%,0%);stroke-opacity:1;stroke-miterlimit:10;" d="M 214.226562 181.71875 L 220.820312 163.96875 "/>
<path style="fill:none;stroke-width:1.2;stroke-linecap:butt;stroke-linejoin:miter;stroke:rgb(0%,0%,0%);stroke-opacity:1;stroke-miterlimit:10;" d="M 220.820312 163.96875 L 208.746094 149.382812 "/>
<path style="fill:none;stroke-width:1.2;stroke-linecap:butt;stroke-linejoin:miter;stroke:rgb(0%,0%,0%);stroke-opacity:1;stroke-miterlimit:10;" d="M 223.042969 159.667969 L 213.382812 148 "/>
<path style="fill:none;stroke-width:1.2;stroke-linecap:butt;stroke-linejoin:miter;stroke:rgb(0%,0%,0%);stroke-opacity:1;stroke-miterlimit:10;" d="M 239.488281 160.804688 L 220.820312 163.96875 "/>
<path style="fill:none;stroke-width:1.2;stroke-linecap:butt;stroke-linejoin:miter;stroke:rgb(0%,0%,0%);stroke-opacity:1;stroke-miterlimit:10;" d="M 208.746094 149.382812 L 212.042969 140.507812 "/>
<path style="fill:none;stroke-width:1.2;stroke-linecap:butt;stroke-linejoin:miter;stroke:rgb(0%,0%,100%);stroke-opacity:1;stroke-miterlimit:10;" d="M 212.042969 140.507812 L 215.339844 131.632812 "/>
<path style="fill:none;stroke-width:1.2;stroke-linecap:butt;stroke-linejoin:miter;stroke:rgb(0%,0%,0%);stroke-opacity:1;stroke-miterlimit:10;" d="M 208.746094 149.382812 L 199.410156 150.964844 "/>
<path style="fill:none;stroke-width:1.2;stroke-linecap:butt;stroke-linejoin:miter;stroke:rgb(0%,0%,100%);stroke-opacity:1;stroke-miterlimit:10;" d="M 199.410156 150.964844 L 190.078125 152.546875 "/>
<path style="fill:none;stroke-width:1.2;stroke-linecap:butt;stroke-linejoin:miter;stroke:rgb(0%,0%,100%);stroke-opacity:1;stroke-miterlimit:10;" d="M 215.339844 131.632812 L 224.671875 130.050781 "/>
<path style="fill:none;stroke-width:1.2;stroke-linecap:butt;stroke-linejoin:miter;stroke:rgb(0%,0%,0%);stroke-opacity:1;stroke-miterlimit:10;" d="M 224.671875 130.050781 L 234.007812 128.46875 "/>
<path style="fill:none;stroke-width:1.2;stroke-linecap:butt;stroke-linejoin:miter;stroke:rgb(0%,0%,100%);stroke-opacity:1;stroke-miterlimit:10;" d="M 215.339844 131.632812 L 209.300781 124.339844 "/>
<path style="fill:none;stroke-width:1.2;stroke-linecap:butt;stroke-linejoin:miter;stroke:rgb(0%,0%,0%);stroke-opacity:1;stroke-miterlimit:10;" d="M 209.300781 124.339844 L 203.265625 117.046875 "/>
<path style=" stroke:none;fill-rule:nonzero;fill:rgb(100%,100%,100%);fill-opacity:1;" d="M 212.339844 126.132812 L 219.339844 126.132812 L 219.339844 137.132812 L 212.339844 137.132812 Z M 212.339844 126.132812 "/>
<g style="fill:rgb(0%,0%,100%);fill-opacity:1;">
  <use xlink:href="#glyph0-1" x="212.339844" y="134.795898"/>
</g>
<path style="fill:none;stroke-width:1.2;stroke-linecap:butt;stroke-linejoin:miter;stroke:rgb(0%,0%,0%);stroke-opacity:1;stroke-miterlimit:10;" d="M 236.09375 129.246094 L 239.394531 120.371094 "/>
<path style="fill:none;stroke-width:1.2;stroke-linecap:butt;stroke-linejoin:miter;stroke:rgb(100%,0%,0%);stroke-opacity:1;stroke-miterlimit:10;" d="M 239.394531 120.371094 L 242.691406 111.496094 "/>
<path style="fill:none;stroke-width:1.2;stroke-linecap:butt;stroke-linejoin:miter;stroke:rgb(0%,0%,0%);stroke-opacity:1;stroke-miterlimit:10;" d="M 231.917969 127.695312 L 235.214844 118.820312 "/>
<path style="fill:none;stroke-width:1.2;stroke-linecap:butt;stroke-linejoin:miter;stroke:rgb(100%,0%,0%);stroke-opacity:1;stroke-miterlimit:10;" d="M 235.214844 118.820312 L 238.511719 109.945312 "/>
<path style="fill:none;stroke-width:1.2;stroke-linecap:butt;stroke-linejoin:miter;stroke:rgb(0%,0%,0%);stroke-opacity:1;stroke-miterlimit:10;" d="M 234.007812 128.46875 L 240.042969 135.761719 "/>
<path style="fill:none;stroke-width:1.2;stroke-linecap:butt;stroke-linejoin:miter;stroke:rgb(0%,0%,100%);stroke-opacity:1;stroke-miterlimit:10;" d="M 240.042969 135.761719 L 246.082031 143.054688 "/>
<path style=" stroke:none;fill-rule:nonzero;fill:rgb(100%,100%,100%);fill-opacity:1;" d="M 236.601562 105.222656 L 244.601562 105.222656 L 244.601562 116.222656 L 236.601562 116.222656 Z M 236.601562 105.222656 "/>
<g style="fill:rgb(100%,0%,0%);fill-opacity:1;">
  <use xlink:href="#glyph0-2" x="236.601562" y="113.885742"/>
</g>
<path style="fill:none;stroke-width:1.2;stroke-linecap:butt;stroke-linejoin:miter;stroke:rgb(0%,0%,100%);stroke-opacity:1;stroke-miterlimit:10;" d="M 246.082031 143.054688 L 242.785156 151.929688 "/>
<path style="fill:none;stroke-width:1.2;stroke-linecap:butt;stroke-linejoin:miter;stroke:rgb(0%,0%,0%);stroke-opacity:1;stroke-miterlimit:10;" d="M 242.785156 151.929688 L 239.488281 160.804688 "/>
<path style="fill:none;stroke-width:1.2;stroke-linecap:butt;stroke-linejoin:miter;stroke:rgb(0%,0%,100%);stroke-opacity:1;stroke-miterlimit:10;" d="M 246.082031 143.054688 L 255.414062 141.472656 "/>
<path style="fill:none;stroke-width:1.2;stroke-linecap:butt;stroke-linejoin:miter;stroke:rgb(0%,0%,0%);stroke-opacity:1;stroke-miterlimit:10;" d="M 255.414062 141.472656 L 264.75 139.890625 "/>
<path style=" stroke:none;fill-rule:nonzero;fill:rgb(100%,100%,100%);fill-opacity:1;" d="M 243.082031 137.554688 L 250.082031 137.554688 L 250.082031 148.554688 L 243.082031 148.554688 Z M 243.082031 137.554688 "/>
<g style="fill:rgb(0%,0%,100%);fill-opacity:1;">
  <use xlink:href="#glyph0-1" x="243.082031" y="146.217773"/>
</g>
<path style="fill:none;stroke-width:1.2;stroke-linecap:butt;stroke-linejoin:miter;stroke:rgb(0%,0%,0%);stroke-opacity:1;stroke-miterlimit:10;" d="M 237.773438 162.226562 L 243.808594 169.519531 "/>
<path style="fill:none;stroke-width:1.2;stroke-linecap:butt;stroke-linejoin:miter;stroke:rgb(100%,0%,0%);stroke-opacity:1;stroke-miterlimit:10;" d="M 243.808594 169.519531 L 249.84375 176.808594 "/>
<path style="fill:none;stroke-width:1.2;stroke-linecap:butt;stroke-linejoin:miter;stroke:rgb(0%,0%,0%);stroke-opacity:1;stroke-miterlimit:10;" d="M 241.203125 159.382812 L 247.242188 166.675781 "/>
<path style="fill:none;stroke-width:1.2;stroke-linecap:butt;stroke-linejoin:miter;stroke:rgb(100%,0%,0%);stroke-opacity:1;stroke-miterlimit:10;" d="M 247.242188 166.675781 L 253.277344 173.96875 "/>
<path style=" stroke:none;fill-rule:nonzero;fill:rgb(100%,100%,100%);fill-opacity:1;" d="M 247.5625 169.890625 L 255.5625 169.890625 L 255.5625 180.890625 L 247.5625 180.890625 Z M 247.5625 169.890625 "/>
<g style="fill:rgb(100%,0%,0%);fill-opacity:1;">
  <use xlink:href="#glyph0-2" x="247.5625" y="178.553711"/>
</g>
<path style="fill:none;stroke-width:1.2;stroke-linecap:butt;stroke-linejoin:miter;stroke:rgb(0%,0%,100%);stroke-opacity:1;stroke-miterlimit:10;" d="M 190.078125 152.546875 L 184.039062 145.253906 "/>
<path style="fill:none;stroke-width:1.2;stroke-linecap:butt;stroke-linejoin:miter;stroke:rgb(0%,0%,0%);stroke-opacity:1;stroke-miterlimit:10;" d="M 184.039062 145.253906 L 178.003906 137.960938 "/>
<path style=" stroke:none;fill-rule:nonzero;fill:rgb(100%,100%,100%);fill-opacity:1;" d="M 183.078125 147.046875 L 197.078125 147.046875 L 197.078125 158.046875 L 183.078125 158.046875 Z M 183.078125 147.046875 "/>
<g style="fill:rgb(0%,0%,100%);fill-opacity:1;">
  <use xlink:href="#glyph0-1" x="183.078125" y="155.709961"/>
  <use xlink:href="#glyph0-3" x="190.055664" y="155.709961"/>
</g>
<path style="fill:none;stroke-width:1.2;stroke-linecap:butt;stroke-linejoin:miter;stroke:rgb(0%,0%,0%);stroke-opacity:1;stroke-miterlimit:10;" d="M 178.003906 137.960938 L 159.335938 141.125 "/>
<path style="fill:none;stroke-width:1.2;stroke-linecap:butt;stroke-linejoin:miter;stroke:rgb(0%,0%,0%);stroke-opacity:1;stroke-miterlimit:10;" d="M 159.335938 141.125 L 147.261719 126.539062 "/>
<path style="fill:none;stroke-width:1.2;stroke-linecap:butt;stroke-linejoin:miter;stroke:rgb(0%,0%,0%);stroke-opacity:1;stroke-miterlimit:10;" d="M 147.261719 126.539062 L 137.925781 128.121094 "/>
<path style="fill:none;stroke-width:1.2;stroke-linecap:butt;stroke-linejoin:miter;stroke:rgb(0%,0%,100%);stroke-opacity:1;stroke-miterlimit:10;" d="M 137.925781 128.121094 L 128.589844 129.703125 "/>
<path style="fill:none;stroke-width:1.2;stroke-linecap:butt;stroke-linejoin:miter;stroke:rgb(0%,0%,100%);stroke-opacity:1;stroke-miterlimit:10;" d="M 128.589844 129.703125 L 122.554688 122.410156 "/>
<path style="fill:none;stroke-width:1.2;stroke-linecap:butt;stroke-linejoin:miter;stroke:rgb(0%,0%,0%);stroke-opacity:1;stroke-miterlimit:10;" d="M 122.554688 122.410156 L 116.519531 115.117188 "/>
<path style="fill:none;stroke-width:1.2;stroke-linecap:butt;stroke-linejoin:miter;stroke:rgb(0%,0%,0%);stroke-opacity:1;stroke-miterlimit:10;" d="M 121.996094 147.453125 L 125.292969 138.578125 "/>
<path style="fill:none;stroke-width:1.2;stroke-linecap:butt;stroke-linejoin:miter;stroke:rgb(0%,0%,100%);stroke-opacity:1;stroke-miterlimit:10;" d="M 125.292969 138.578125 L 128.589844 129.703125 "/>
<path style=" stroke:none;fill-rule:nonzero;fill:rgb(100%,100%,100%);fill-opacity:1;" d="M 125.589844 124.203125 L 132.589844 124.203125 L 132.589844 135.203125 L 125.589844 135.203125 Z M 125.589844 124.203125 "/>
<g style="fill:rgb(0%,0%,100%);fill-opacity:1;">
  <use xlink:href="#glyph0-1" x="125.589844" y="132.866211"/>
</g>
<path style="fill:none;stroke-width:1.2;stroke-linecap:butt;stroke-linejoin:miter;stroke:rgb(0%,0%,0%);stroke-opacity:1;stroke-miterlimit:10;" d="M 116.519531 115.117188 L 97.847656 118.28125 "/>
<path style="fill:none;stroke-width:1.2;stroke-linecap:butt;stroke-linejoin:miter;stroke:rgb(0%,0%,0%);stroke-opacity:1;stroke-miterlimit:10;" d="M 97.847656 118.28125 L 94.550781 127.15625 "/>
<path style="fill:none;stroke-width:1.2;stroke-linecap:butt;stroke-linejoin:miter;stroke:rgb(0%,0%,100%);stroke-opacity:1;stroke-miterlimit:10;" d="M 94.550781 127.15625 L 91.253906 136.03125 "/>
<path style="fill:none;stroke-width:1.2;stroke-linecap:butt;stroke-linejoin:miter;stroke:rgb(0%,0%,100%);stroke-opacity:1;stroke-miterlimit:10;" d="M 91.253906 136.03125 L 97.292969 143.324219 "/>
<path style="fill:none;stroke-width:1.2;stroke-linecap:butt;stroke-linejoin:miter;stroke:rgb(0%,0%,0%);stroke-opacity:1;stroke-miterlimit:10;" d="M 97.292969 143.324219 L 103.328125 150.617188 "/>
<path style="fill:none;stroke-width:1.2;stroke-linecap:butt;stroke-linejoin:miter;stroke:rgb(0%,0%,100%);stroke-opacity:1;stroke-miterlimit:10;" d="M 91.253906 136.03125 L 81.921875 137.613281 "/>
<path style="fill:none;stroke-width:1.2;stroke-linecap:butt;stroke-linejoin:miter;stroke:rgb(0%,0%,0%);stroke-opacity:1;stroke-miterlimit:10;" d="M 81.921875 137.613281 L 72.585938 139.195312 "/>
<path style=" stroke:none;fill-rule:nonzero;fill:rgb(100%,100%,100%);fill-opacity:1;" d="M 88.253906 130.53125 L 95.253906 130.53125 L 95.253906 141.53125 L 88.253906 141.53125 Z M 88.253906 130.53125 "/>
<g style="fill:rgb(0%,0%,100%);fill-opacity:1;">
  <use xlink:href="#glyph0-1" x="88.253906" y="139.194336"/>
</g>
<path style="fill:none;stroke-width:1.2;stroke-linecap:butt;stroke-linejoin:miter;stroke:rgb(0%,0%,0%);stroke-opacity:1;stroke-miterlimit:10;" d="M 103.328125 150.617188 L 121.996094 147.453125 "/>
<path style="fill:none;stroke-width:1.2;stroke-linecap:butt;stroke-linejoin:miter;stroke:rgb(0%,0%,0%);stroke-opacity:1;stroke-miterlimit:10;" d="M 72.585938 139.195312 L 60.511719 124.609375 "/>
<path style="fill:none;stroke-width:1.2;stroke-linecap:butt;stroke-linejoin:miter;stroke:rgb(0%,0%,0%);stroke-opacity:1;stroke-miterlimit:10;" d="M 67.949219 140.578125 L 58.289062 128.910156 "/>
<path style="fill:none;stroke-width:1.2;stroke-linecap:butt;stroke-linejoin:miter;stroke:rgb(0%,0%,0%);stroke-opacity:1;stroke-miterlimit:10;" d="M 65.992188 156.945312 L 72.585938 139.195312 "/>
<path style="fill:none;stroke-width:1.2;stroke-linecap:butt;stroke-linejoin:miter;stroke:rgb(0%,0%,0%);stroke-opacity:1;stroke-miterlimit:10;" d="M 60.511719 124.609375 L 41.84375 127.773438 "/>
<path style="fill:none;stroke-width:1.2;stroke-linecap:butt;stroke-linejoin:miter;stroke:rgb(0%,0%,0%);stroke-opacity:1;stroke-miterlimit:10;" d="M 41.84375 127.773438 L 35.25 145.523438 "/>
<path style="fill:none;stroke-width:1.2;stroke-linecap:butt;stroke-linejoin:miter;stroke:rgb(0%,0%,0%);stroke-opacity:1;stroke-miterlimit:10;" d="M 45.359375 131.101562 L 40.085938 145.300781 "/>
<path style="fill:none;stroke-width:1.2;stroke-linecap:butt;stroke-linejoin:miter;stroke:rgb(0%,0%,0%);stroke-opacity:1;stroke-miterlimit:10;" d="M 35.25 145.523438 L 47.324219 160.109375 "/>
<path style="fill:none;stroke-width:1.2;stroke-linecap:butt;stroke-linejoin:miter;stroke:rgb(0%,0%,0%);stroke-opacity:1;stroke-miterlimit:10;" d="M 47.324219 160.109375 L 65.992188 156.945312 "/>
<path style="fill:none;stroke-width:1.2;stroke-linecap:butt;stroke-linejoin:miter;stroke:rgb(0%,0%,0%);stroke-opacity:1;stroke-miterlimit:10;" d="M 48.445312 155.398438 L 63.382812 152.867188 "/>
<path style="fill:none;stroke-width:1.2;stroke-linecap:butt;stroke-linejoin:miter;stroke:rgb(0%,0%,0%);stroke-opacity:1;stroke-miterlimit:10;" d="M 65.992188 156.945312 L 72.03125 164.238281 "/>
<path style="fill:none;stroke-width:1.2;stroke-linecap:butt;stroke-linejoin:miter;stroke:rgb(100%,0%,0%);stroke-opacity:1;stroke-miterlimit:10;" d="M 72.03125 164.238281 L 78.066406 171.53125 "/>
<path style="fill:none;stroke-width:1.2;stroke-linecap:butt;stroke-linejoin:miter;stroke:rgb(100%,0%,0%);stroke-opacity:1;stroke-miterlimit:10;" d="M 78.066406 171.53125 L 74.769531 180.40625 "/>
<path style="fill:none;stroke-width:1.2;stroke-linecap:butt;stroke-linejoin:miter;stroke:rgb(0%,0%,0%);stroke-opacity:1;stroke-miterlimit:10;" d="M 74.769531 180.40625 L 71.472656 189.277344 "/>
<path style=" stroke:none;fill-rule:nonzero;fill:rgb(100%,100%,100%);fill-opacity:1;" d="M 74.066406 166.03125 L 82.066406 166.03125 L 82.066406 177.03125 L 74.066406 177.03125 Z M 74.066406 166.03125 "/>
<g style="fill:rgb(100%,0%,0%);fill-opacity:1;">
  <use xlink:href="#glyph0-2" x="74.066406" y="174.694336"/>
</g>
</g>
</svg>

<svg xmlns="http://www.w3.org/2000/svg" xmlns:xlink="http://www.w3.org/1999/xlink" width="300pt" height="300pt" viewBox="0 0 300 300"><defs><symbol overflow="visible"><path d="M.453 1.594v-7.938h4.5v7.938zm.5-.5h3.5v-6.938h-3.5zm0 0"/></symbol><symbol overflow="visible" id="a"><path d="M.89-6.563H2.08l2.906 5.485v-5.484h.86V0H4.656L1.75-5.484V0H.89zm0 0"/></symbol><symbol overflow="visible" id="b"><path d="M3.547-5.953c-.65 0-1.164.242-1.547.72-.375.48-.563 1.13-.563 1.952 0 .835.188 1.49.563 1.967.383.48.898.72 1.547.72.644 0 1.156-.24 1.53-.72.376-.476.564-1.132.564-1.968 0-.822-.187-1.474-.562-1.954-.375-.477-.887-.72-1.53-.72zm0-.734c.914 0 1.648.312 2.203.937.55.617.828 1.438.828 2.47 0 1.042-.277 1.87-.828 2.483-.555.617-1.29.922-2.203.922-.93 0-1.668-.305-2.22-.922C.774-1.41.5-2.237.5-3.28c0-1.033.273-1.853.828-2.47.55-.625 1.29-.938 2.22-.938zm0 0"/></symbol><symbol overflow="visible" id="c"><path d="M.89-6.563h.876v2.688H5v-2.688h.89V0H5v-3.125H1.766V0H.89zm0 0"/></symbol></defs><g><path fill="#fff" d="M0 0h300v300H0z"/><path d="M214.227 181.72l6.593-17.75M220.82 163.97l-12.074-14.587M223.043 159.668L213.383 148M239.488 160.805l-18.668 3.164M208.746 149.383l3.297-8.875" stroke-width="1.2" stroke="#000" stroke-miterlimit="10" fill="none"/><path d="M212.043 140.508l3.297-8.875" stroke-width="1.2" stroke="#00f" stroke-miterlimit="10" fill="none"/><path d="M208.746 149.383l-9.336 1.582" stroke-width="1.2" stroke="#000" stroke-miterlimit="10" fill="none"/><path d="M199.41 150.965l-9.332 1.582M215.34 131.633l9.332-1.582" stroke-width="1.2" stroke="#00f" stroke-miterlimit="10" fill="none"/><path d="M224.672 130.05l9.336-1.58" stroke-width="1.2" stroke="#000" stroke-miterlimit="10" fill="none"/><path d="M215.34 131.633l-6.04-7.293" stroke-width="1.2" stroke="#00f" stroke-miterlimit="10" fill="none"/><path d="M209.3 124.34l-6.034-7.293" stroke-width="1.2" stroke="#000" stroke-miterlimit="10" fill="none"/><path d="M212.34 126.133h7v11h-7zm0 0" fill="#fff"/><use xlink:href="#a" x="212.34" y="134.796" fill="#00f"/><path d="M236.094 129.246l3.3-8.875" stroke-width="1.2" stroke="#000" stroke-miterlimit="10" fill="none"/><path d="M239.395 120.37l3.296-8.874" stroke-width="1.2" stroke="#f00" stroke-miterlimit="10" fill="none"/><path d="M231.918 127.695l3.297-8.875" stroke-width="1.2" stroke="#000" stroke-miterlimit="10" fill="none"/><path d="M235.215 118.82l3.297-8.875" stroke-width="1.2" stroke="#f00" stroke-miterlimit="10" fill="none"/><path d="M234.008 128.47l6.035 7.292" stroke-width="1.2" stroke="#000" stroke-miterlimit="10" fill="none"/><path d="M240.043 135.762l6.04 7.293" stroke-width="1.2" stroke="#00f" stroke-miterlimit="10" fill="none"/><path d="M236.602 105.223h8v11h-8zm0 0" fill="#fff"/><use xlink:href="#b" x="236.602" y="113.886" fill="#f00"/><path d="M246.082 143.055l-3.297 8.875" stroke-width="1.2" stroke="#00f" stroke-miterlimit="10" fill="none"/><path d="M242.785 151.93l-3.297 8.875" stroke-width="1.2" stroke="#000" stroke-miterlimit="10" fill="none"/><path d="M246.082 143.055l9.332-1.582" stroke-width="1.2" stroke="#00f" stroke-miterlimit="10" fill="none"/><path d="M255.414 141.473l9.336-1.582" stroke-width="1.2" stroke="#000" stroke-miterlimit="10" fill="none"/><path d="M243.082 137.555h7v11h-7zm0 0" fill="#fff"/><use xlink:href="#a" x="243.082" y="146.218" fill="#00f"/><path d="M237.773 162.227l6.036 7.293" stroke-width="1.2" stroke="#000" stroke-miterlimit="10" fill="none"/><path d="M243.81 169.52l6.034 7.29" stroke-width="1.2" stroke="#f00" stroke-miterlimit="10" fill="none"/><path d="M241.203 159.383l6.04 7.293" stroke-width="1.2" stroke="#000" stroke-miterlimit="10" fill="none"/><path d="M247.242 166.676l6.035 7.293" stroke-width="1.2" stroke="#f00" stroke-miterlimit="10" fill="none"/><path d="M247.563 169.89h8v11h-8zm0 0" fill="#fff"/><use xlink:href="#b" x="247.563" y="178.554" fill="#f00"/><path d="M190.078 152.547l-6.04-7.293" stroke-width="1.2" stroke="#00f" stroke-miterlimit="10" fill="none"/><path d="M184.04 145.254l-6.036-7.293" stroke-width="1.2" stroke="#000" stroke-miterlimit="10" fill="none"/><path d="M183.078 147.047h14v11h-14zm0 0" fill="#fff"/><g fill="#00f"><use xlink:href="#a" x="183.078" y="155.71"/><use xlink:href="#c" x="190.056" y="155.71"/></g><path d="M178.004 137.96l-18.668 3.165M159.336 141.125l-12.074-14.586M147.262 126.54l-9.336 1.58" stroke-width="1.2" stroke="#000" stroke-miterlimit="10" fill="none"/><path d="M137.926 128.12l-9.336 1.583M128.59 129.703l-6.035-7.293" stroke-width="1.2" stroke="#00f" stroke-miterlimit="10" fill="none"/><path d="M122.555 122.41l-6.035-7.293M121.996 147.453l3.297-8.875" stroke-width="1.2" stroke="#000" stroke-miterlimit="10" fill="none"/><path d="M125.293 138.578l3.297-8.875" stroke-width="1.2" stroke="#00f" stroke-miterlimit="10" fill="none"/><path d="M125.59 124.203h7v11h-7zm0 0" fill="#fff"/><use xlink:href="#a" x="125.59" y="132.866" fill="#00f"/><path d="M116.52 115.117l-18.672 3.164M97.848 118.28l-3.297 8.876" stroke-width="1.2" stroke="#000" stroke-miterlimit="10" fill="none"/><path d="M94.55 127.156l-3.296 8.875M91.254 136.03l6.04 7.294" stroke-width="1.2" stroke="#00f" stroke-miterlimit="10" fill="none"/><path d="M97.293 143.324l6.035 7.293" stroke-width="1.2" stroke="#000" stroke-miterlimit="10" fill="none"/><path d="M91.254 136.03l-9.332 1.583" stroke-width="1.2" stroke="#00f" stroke-miterlimit="10" fill="none"/><path d="M81.922 137.613l-9.336 1.582" stroke-width="1.2" stroke="#000" stroke-miterlimit="10" fill="none"/><path d="M88.254 130.53h7v11h-7zm0 0" fill="#fff"/><use xlink:href="#a" x="88.254" y="139.194" fill="#00f"/><path d="M103.328 150.617l18.668-3.164M72.586 139.195L60.512 124.61M67.95 140.578l-9.66-11.668M65.992 156.945l6.594-17.75M60.512 124.61l-18.668 3.163M41.844 127.773l-6.594 17.75M45.36 131.102l-5.274 14.2M35.25 145.523l12.074 14.586M47.324 160.11l18.668-3.165M48.445 155.398l14.938-2.53M65.992 156.945l6.04 7.293" stroke-width="1.2" stroke="#000" stroke-miterlimit="10" fill="none"/><path d="M72.03 164.238l6.036 7.293M78.066 171.53l-3.296 8.876" stroke-width="1.2" stroke="#f00" stroke-miterlimit="10" fill="none"/><path d="M74.77 180.406l-3.297 8.87" stroke-width="1.2" stroke="#000" stroke-miterlimit="10" fill="none"/><path d="M74.066 166.03h8v11h-8zm0 0" fill="#fff"/><use xlink:href="#b" x="74.066" y="174.694" fill="#f00"/></g></svg>
